lib/preview_tmp/nrk-logo-preview-nrk-1-on-light.svg

<svg width="51" height="16" viewBox="0 0 51 16" fill="none" xmlns="http://www.w3.org/2000/svg">
<path d="M0 15V1.00127H4.59339V15H0ZM10.8428 3.22924L13.4844 15H8.45737L5.30307 1.00127H8.12254C8.76907 0.992882 9.39641 1.22079 9.88691 1.64212C10.3782 2.04578 10.7158 2.60615 10.8428 3.22924ZM14.1744 15V1.00127H18.7678V15H14.1744ZM22.2372 6.32478C21.7422 6.32961 21.2552 6.2001 20.828 5.95013C20.4064 5.70647 20.0563 5.35629 19.8127 4.9347C19.5624 4.50739 19.4329 4.02022 19.4378 3.52504C19.4321 3.03287 19.5618 2.54861 19.8127 2.12517C20.0589 1.70816 20.4086 1.36178 20.828 1.11961C21.2553 0.869921 21.7423 0.740435 22.2372 0.744949C22.7292 0.73965 23.2133 0.869252 23.6369 1.11961C24.0521 1.3639 24.3981 1.70999 24.6424 2.12517C24.893 2.54873 25.0226 3.03291 25.0172 3.52504C25.0218 4.02018 24.8923 4.50727 24.6424 4.9347C24.4007 5.35444 24.0542 5.70433 23.6369 5.95013C23.2133 6.20097 22.7289 6.33061 22.2366 6.32478H22.2372ZM25.7269 15V1.00127H30.3207V15H25.7269ZM36.136 8.65127C36.1489 8.66486 36.2475 8.82586 36.4317 9.13432C36.6159 9.44277 36.8558 9.83713 37.1513 10.3173C37.447 10.7973 37.759 11.3066 38.0874 11.8453C38.4157 12.384 38.7247 12.8934 39.0143 13.3734C39.3028 13.8534 39.6313 14.3956 40 15H34.9531C34.6375 14.4874 34.3515 14.024 34.0952 13.61C33.8389 13.1959 33.5665 12.749 33.2778 12.2692C32.9884 11.7899 32.7024 11.3233 32.4196 10.8694C32.1368 10.4155 31.8938 10.0179 31.6905 9.67657C31.4863 9.33504 31.3449 9.10498 31.2663 8.98646C31.0713 8.69235 30.9559 8.35268 30.9315 8.00064C30.951 7.66276 31.0597 7.33614 31.2466 7.05396C31.3254 6.92252 31.47 6.68917 31.6803 6.35399C31.8906 6.01881 32.137 5.62123 32.4196 5.16118C32.7021 4.70113 32.9882 4.23121 33.2778 3.75144C33.5674 3.27167 33.8398 2.82144 34.0952 2.40082C34.3519 1.98064 34.6379 1.51402 34.9531 1.00095H40L36.0962 7.36941C35.9754 7.55849 35.9073 7.7764 35.8991 8.00064C35.9121 8.23604 35.9942 8.46237 36.1353 8.65127H36.136Z" fill="#0A2343"/>
<path d="M49.6514 1C49.3359 1.15774 49.0369 1.3122 48.7543 1.46337C48.4717 1.61454 48.1956 1.75584 47.9262 1.88729C47.6567 2.01873 47.3839 2.15019 47.1079 2.28164C46.8318 2.41309 46.5492 2.5314 46.26 2.63655C45.9708 2.74193 45.6619 2.84708 45.3333 2.95202L45.7671 4.62801C46.1614 4.5097 46.5198 4.39139 46.842 4.27309C47.1574 4.15774 47.4666 4.02611 47.7684 3.87874C48.0642 3.73414 48.3599 3.5764 48.6557 3.40552L48.6656 3.3996V15H50.7165V1.00066L49.6514 1Z" fill="#1767CE"/>
</svg>

<svg xmlns="http://www.w3.org/2000/svg" viewBox="0 0 51 16"><path fill="#0A2343" d="M0 15V1.001h4.593V15H0ZM10.843 3.23 13.484 15H8.457L5.303 1.001h2.82a2.655 2.655 0 0 1 1.764.641c.491.404.829.964.956 1.587ZM14.174 15V1.001h4.594V15h-4.594Zm8.063-8.675a2.737 2.737 0 0 1-1.409-.375 2.778 2.778 0 0 1-1.015-1.015 2.735 2.735 0 0 1-.375-1.41 2.685 2.685 0 0 1 .375-1.4 2.812 2.812 0 0 1 3.824-1.005c.415.244.761.59 1.005 1.005.251.424.38.908.375 1.4.005.495-.125.982-.375 1.41a2.8 2.8 0 0 1-1.005 1.015c-.424.251-.908.38-1.4.375ZM25.727 15V1.001h4.594V15h-4.594Zm10.409-6.349c.013.014.111.175.296.483.184.309.424.703.72 1.183a384.573 384.573 0 0 1 1.862 3.056c.289.48.617 1.023.986 1.627h-5.047l-.858-1.39c-.256-.414-.529-.861-.817-1.34-.29-.48-.576-.947-.858-1.4a71.017 71.017 0 0 1-.73-1.193 21.112 21.112 0 0 0-.424-.69A2.04 2.04 0 0 1 30.932 8c.019-.338.128-.665.315-.947.078-.131.223-.365.433-.7a216.7 216.7 0 0 0 1.598-2.603l.817-1.35.858-1.4H40l-3.904 6.368c-.12.19-.189.407-.197.632.013.235.095.461.236.65h.001Z"/><path fill="#1767CE" d="M49.651 1c-.315.158-.614.312-.897.463-.282.152-.558.293-.828.424-.27.132-.542.263-.818.395-.276.131-.559.25-.848.355-.29.105-.598.21-.927.315l.434 1.676c.394-.118.753-.237 1.075-.355a9.72 9.72 0 0 0 .926-.394c.296-.145.592-.303.888-.473l.01-.006V15h2.05V1h-1.065Z"/></svg>
